X: 1
T: The Old Woman's Dance
R: jig
M: 6/8
L: 1/8
K: Amix
|:dGB AAA|GBg gfg|aee ege|dBd edB|
dGB AAA|GBg gfg|aee ege|dGB AAA:|
|:aaa Aaa|eaa ged|eag GBe|dBd edB|
aaa Aaa|eaa ged|aee ege|dGB AAA:|
|:dGB AAA|GBe dee|age gBe|deg age|
dGB AAA|GBe deg|aee ege|dGB AAA:|
|:aee gee|dee aee|gdd edd|Bdd gdd|
aee gee|deg aAa|gee ege|dGB AAA:|

